docs/images/logos/bosch.svg

<?xml version="1.0" encoding="UTF-8" standalone="no"?>
<svg
   xmlns:dc="http://purl.org/dc/elements/1.1/"
   xmlns:cc="http://creativecommons.org/ns#"
   xmlns:rdf="http://www.w3.org/1999/02/22-rdf-syntax-ns#"
   xmlns:svg="http://www.w3.org/2000/svg"
   xmlns="http://www.w3.org/2000/svg"
   xmlns:sodipodi="http://sodipodi.sourceforge.net/DTD/sodipodi-0.dtd"
   xmlns:inkscape="http://www.inkscape.org/namespaces/inkscape"
   inkscape:version="1.0beta2 (2b71d25, 2019-12-03)"
   sodipodi:docname="bosch.svg"
   xml:space="preserve"
   style="enable-background:new 0 0 549.2 232;"
   viewBox="0 0 549.2 232"
   y="0px"
   x="0px"
   id="Ebene_1"
   version="1.1"><metadata
   id="metadata40"><rdf:RDF><cc:Work
       rdf:about=""><dc:format>image/svg+xml</dc:format><dc:type
         rdf:resource="http://purl.org/dc/dcmitype/StillImage" /></cc:Work></rdf:RDF></metadata><defs
   id="defs38" /><sodipodi:namedview
   inkscape:current-layer="Ebene_1"
   inkscape:window-maximized="0"
   inkscape:window-y="23"
   inkscape:window-x="0"
   inkscape:cy="116"
   inkscape:cx="274.60001"
   inkscape:zoom="0.89584849"
   showgrid="false"
   id="namedview36"
   inkscape:window-height="480"
   inkscape:window-width="938"
   inkscape:pageshadow="2"
   inkscape:pageopacity="0"
   guidetolerance="10"
   gridtolerance="10"
   objecttolerance="10"
   borderopacity="1"
   inkscape:document-rotation="0"
   bordercolor="#666666"
   pagecolor="#ffffff" />
<style
   id="style10"
   type="text/css">
	.st0{fill:#E20015;}
	.st1{fill:#575757;}
</style>
<g
   transform="matrix(1.2217052,0,0,1.2217052,-55.195844,-28.294231)"
   id="g33">
	<g
   id="g24">
		<g
   id="g22">
			<path
   inkscape:connector-curvature="0"
   id="path12"
   d="m 237.8,118.4 c 0,0 8.8,-3 8.8,-13 0,-11.7 -8.3,-17.5 -19.7,-17.5 H 197 v 63.6 h 32.5 c 10,0 19.8,-7 19.8,-17.7 0,-12.7 -11.5,-15.3 -11.5,-15.4 z m -25.2,-17.3 h 11.6 c 3.6,0 6,2.4 6,6 0,2.8 -2.2,5.8 -6.3,5.8 h -11.4 v -11.8 z m 11.7,37.1 H 212.7 V 125.7 H 224 c 5.7,0 8.4,2.5 8.4,6.2 0,4.6 -3.4,6.3 -8.1,6.3 z"
   class="st0" />
			<path
   inkscape:connector-curvature="0"
   id="path14"
   d="m 283.7,86.3 c -18.4,0 -29.2,14.7 -29.2,33.3 0,18.7 10.8,33.3 29.2,33.3 18.5,0 29.2,-14.6 29.2,-33.3 0,-18.6 -10.7,-33.3 -29.2,-33.3 z m 0,51.4 c -9,0 -13.5,-8.1 -13.5,-18.1 0,-10 4.5,-18 13.5,-18 9,0 13.6,8.1 13.6,18 0,10 -4.6,18.1 -13.6,18.1 z"
   class="st0" />
			<path
   inkscape:connector-curvature="0"
   id="path16"
   d="m 346.8,112.8 -2.2,-0.5 c -5.4,-1.1 -9.7,-2.5 -9.7,-6.4 0,-4.2 4.1,-5.9 7.7,-5.9 5.3,0 10,2.6 13,5.9 l 9.9,-9.8 c -4.5,-5.1 -11.8,-10 -23.2,-10 -13.4,0 -23.5,7.5 -23.5,20 0,11.4 8.2,17 18.2,19.1 l 2.2,0.5 c 8.3,1.7 11.4,3 11.4,7 0,3.8 -3.4,6.3 -8.6,6.3 -6.2,0 -11.8,-2.7 -16.1,-8.2 l -10.1,10 c 5.6,6.7 12.7,11.9 26.4,11.9 11.9,0 24.6,-6.8 24.6,-20.7 0.1,-14.5 -10.9,-17.3 -20,-19.2 z"
   class="st0" />
			<path
   inkscape:connector-curvature="0"
   id="path18"
   d="m 402.3,137.7 c -7,0 -14.3,-5.8 -14.3,-18.5 0,-11.3 6.8,-17.6 13.9,-17.6 5.6,0 8.9,2.6 11.5,7.1 l 12.8,-8.5 c -6.4,-9.7 -14,-13.8 -24.5,-13.8 -19.2,0 -29.6,14.9 -29.6,32.9 0,18.9 11.5,33.7 29.4,33.7 12.6,0 18.6,-4.4 25.1,-13.8 l -12.9,-8.7 c -2.6,4.2 -5.4,7.2 -11.4,7.2 z"
   class="st0" />
			<polygon
   id="polygon20"
   points="468.9,151.4 485.6,151.4 485.6,87.8 468.9,87.8 468.9,111.2 449.6,111.2 449.6,87.8 432.9,87.8 432.9,151.4 449.6,151.4 449.6,126.3 468.9,126.3 "
   class="st0" />
		</g>
	</g>
	<g
   id="_x38_7_x2F_87_x2F_87__x7C__0_x2F_0_x2F_0">
		<g
   id="g30">
			<path
   inkscape:connector-curvature="0"
   id="path26"
   d="m 100.8,71.5 c -26.6,0 -48.2,21.6 -48.2,48.2 0,26.6 21.6,48.2 48.2,48.2 26.6,0 48.2,-21.6 48.2,-48.2 0,-26.6 -21.6,-48.2 -48.2,-48.2 z m 0,91.9 c -24.1,0 -43.7,-19.6 -43.7,-43.7 0,-24.1 19.6,-43.7 43.7,-43.7 24.1,0 43.7,19.6 43.7,43.7 0,24.1 -19.6,43.7 -43.7,43.7 z"
   class="st1" />
			<path
   inkscape:connector-curvature="0"
   id="path28"
   d="m 120.7,89.6 h -3.3 v 16.5 H 84.3 V 89.6 h -3.4 c -9.7,6.5 -16.2,17.5 -16.2,30.1 0,12.6 6.5,23.6 16.2,30.1 h 3.4 v -16.5 h 33.1 v 16.5 h 3.3 c 9.8,-6.5 16.2,-17.5 16.2,-30.1 0,-12.6 -6.4,-23.6 -16.2,-30.1 z m -41,53.7 C 73,137.4 69.1,128.9 69.1,119.7 69.1,110.5 73,102 79.7,96.1 Z m 37.7,-14.6 H 84.3 v -18.1 h 33.1 c 0,0.1 0,18.1 0,18.1 z m 4.5,14.5 v -10 0 -27.1 0 -10 c 6.6,5.9 10.5,14.4 10.5,23.5 0,9.2 -3.9,17.7 -10.5,23.6 z"
   class="st1" />
		</g>
	</g>
</g>
</svg>

<?xml version="1.0" encoding="utf-8"?>
<!-- Generator: Adobe Illustrator 21.0.0, SVG Export Plug-In . SVG Version: 6.00 Build 0)  -->
<svg version="1.1" id="Ebene_1" xmlns="http://www.w3.org/2000/svg" xmlns:xlink="http://www.w3.org/1999/xlink" x="0px" y="0px"
	 viewBox="0 0 549.2 232" style="enable-background:new 0 0 549.2 232;" xml:space="preserve">
<style type="text/css">
	.st0{fill:#E20015;}
	.st1{fill:#575757;}
</style>
<g>
	<g>
		<g>
			<path class="st0" d="M237.8,118.4c0,0,8.8-3,8.8-13c0-11.7-8.3-17.5-19.7-17.5H197v63.6h32.5c10,0,19.8-7,19.8-17.7
				C249.3,121.1,237.8,118.5,237.8,118.4z M212.6,101.1h11.6c3.6,0,6,2.4,6,6c0,2.8-2.2,5.8-6.3,5.8h-11.4V101.1z M224.3,138.2
				h-11.6v-12.5H224c5.7,0,8.4,2.5,8.4,6.2C232.4,136.5,229,138.2,224.3,138.2z"/>
			<path class="st0" d="M283.7,86.3c-18.4,0-29.2,14.7-29.2,33.3c0,18.7,10.8,33.3,29.2,33.3c18.5,0,29.2-14.6,29.2-33.3
				C312.9,101,302.2,86.3,283.7,86.3z M283.7,137.7c-9,0-13.5-8.1-13.5-18.1c0-10,4.5-18,13.5-18s13.6,8.1,13.6,18
				C297.3,129.6,292.7,137.7,283.7,137.7z"/>
			<path class="st0" d="M346.8,112.8l-2.2-0.5c-5.4-1.1-9.7-2.5-9.7-6.4c0-4.2,4.1-5.9,7.7-5.9c5.3,0,10,2.6,13,5.9l9.9-9.8
				c-4.5-5.1-11.8-10-23.2-10c-13.4,0-23.5,7.5-23.5,20c0,11.4,8.2,17,18.2,19.1l2.2,0.5c8.3,1.7,11.4,3,11.4,7
				c0,3.8-3.4,6.3-8.6,6.3c-6.2,0-11.8-2.7-16.1-8.2l-10.1,10c5.6,6.7,12.7,11.9,26.4,11.9c11.9,0,24.6-6.8,24.6-20.7
				C366.9,117.5,355.9,114.7,346.8,112.8z"/>
			<path class="st0" d="M402.3,137.7c-7,0-14.3-5.8-14.3-18.5c0-11.3,6.8-17.6,13.9-17.6c5.6,0,8.9,2.6,11.5,7.1l12.8-8.5
				c-6.4-9.7-14-13.8-24.5-13.8c-19.2,0-29.6,14.9-29.6,32.9c0,18.9,11.5,33.7,29.4,33.7c12.6,0,18.6-4.4,25.1-13.8l-12.9-8.7
				C411.1,134.7,408.3,137.7,402.3,137.7z"/>
			<polygon class="st0" points="468.9,87.8 468.9,111.2 449.6,111.2 449.6,87.8 432.9,87.8 432.9,151.4 449.6,151.4 449.6,126.3 
				468.9,126.3 468.9,151.4 485.6,151.4 485.6,87.8 			"/>
		</g>
	</g>
	<g id="_x38_7_x2F_87_x2F_87__x7C__0_x2F_0_x2F_0">
		<g>
			<path class="st1" d="M100.8,71.5c-26.6,0-48.2,21.6-48.2,48.2s21.6,48.2,48.2,48.2c26.6,0,48.2-21.6,48.2-48.2
				S127.4,71.5,100.8,71.5z M100.8,163.4c-24.1,0-43.7-19.6-43.7-43.7S76.7,76,100.8,76c24.1,0,43.7,19.6,43.7,43.7
				S124.9,163.4,100.8,163.4z"/>
			<path class="st1" d="M120.7,89.6h-3.3v16.5H84.3V89.6h-3.4c-9.7,6.5-16.2,17.5-16.2,30.1c0,12.6,6.5,23.6,16.2,30.1h3.4v-16.5
				h33.1v16.5h3.3c9.8-6.5,16.2-17.5,16.2-30.1C136.9,107.1,130.5,96.1,120.7,89.6z M79.7,143.3c-6.7-5.9-10.6-14.4-10.6-23.6
				c0-9.2,3.9-17.7,10.6-23.6V143.3z M117.4,128.7H84.3v-18.1h33.1C117.4,110.7,117.4,128.7,117.4,128.7z M121.9,143.2v-10l0,0
				v-27.1l0,0v-10c6.6,5.9,10.5,14.4,10.5,23.5C132.4,128.8,128.5,137.3,121.9,143.2z"/>
		</g>
	</g>
</g>
</svg>
